packages/trader/src/Assets/SvgComponents/trade_explanations/img-match-diff.svg

<svg width="328" height="164" viewBox="0 0 328 164" fill="none" xmlns="http://www.w3.org/2000/svg">
<rect width="328" height="164" rx="6" fill="var(--general-section-1)"/>
<path d="M186.131 101.337H220.47C223.844 101.337 226.579 104.224 226.579 107.779C226.579 111.346 223.844 114.221 220.47 114.221H64.0325C60.6688 114.221 57.9339 111.346 57.9339 107.779C57.9339 104.224 60.6584 101.337 64.043 101.337H131.191C134.565 101.337 137.3 98.4504 137.3 94.8955C137.3 91.3406 134.576 88.4537 131.191 88.4537H79.2896V88.3941C76.2403 87.9885 73.9454 85.2448 73.9454 82C73.9454 78.7552 76.2403 76.0115 79.2896 75.6059V75.5582H100.666C104.03 75.5582 106.765 72.6713 106.765 69.1164C106.765 65.5496 104.04 62.6627 100.656 62.6627H72.426C69.0519 62.6627 66.3169 59.7758 66.3169 56.2209C66.3169 52.654 69.0414 49.7791 72.426 49.7791H217.421C220.795 49.7791 223.53 52.654 223.53 56.2209C223.53 59.7758 220.795 62.6627 217.421 62.6627H160.94C157.577 62.6627 154.842 65.5496 154.842 69.1045C154.842 72.6594 157.577 75.5463 160.951 75.5463H194.525C197.899 75.5463 200.634 78.4451 200.634 82C200.634 85.5549 197.899 88.4418 194.525 88.4418H176.208C172.844 88.4418 170.109 91.3287 170.109 94.8836C170.109 98.4504 172.834 101.337 176.208 101.337H186.131ZM54.0986 49.7672C57.4833 49.7672 60.2182 52.6541 60.2182 56.209C60.2182 59.7877 57.4833 62.6627 54.1091 62.6627C50.735 62.6627 48 59.7758 48 56.2209C48 52.654 50.735 49.7791 54.1091 49.7791L54.0986 49.7672ZM197.574 24H240.317C243.681 24 246.416 26.875 246.416 30.4418C246.416 34.0086 243.691 36.8836 240.317 36.8836H197.574C194.21 36.8836 191.475 33.9967 191.475 30.4418C191.475 26.875 194.2 24 197.574 24ZM171.629 24C175.003 24 177.738 26.875 177.738 30.4418C177.738 34.0086 175.003 36.8836 171.629 36.8836C168.254 36.8836 165.53 33.9967 165.53 30.4418C165.53 26.875 168.254 24 171.629 24ZM245.651 49.7672H256.339C259.713 49.7672 262.448 52.6541 262.448 56.209C262.448 59.7877 259.713 62.6627 256.339 62.6627H245.651C242.287 62.6627 239.552 59.7758 239.552 56.2209C239.552 52.654 242.276 49.7791 245.651 49.7791V49.7672ZM218.94 75.5582H241.836C245.21 75.5582 247.945 78.4451 247.945 82C247.945 85.5549 245.221 88.4418 241.836 88.4418H218.951C215.577 88.4418 212.842 85.5549 212.842 82C212.842 78.4451 215.566 75.5582 218.951 75.5582H218.94ZM240.317 101.337H273.891C277.265 101.337 280 104.224 280 107.779C280 111.346 277.265 114.221 273.891 114.221H240.317C236.943 114.221 234.208 111.346 234.208 107.779C234.208 104.224 236.943 101.337 240.317 101.337ZM94.5572 127.116H163.235C166.609 127.116 169.344 130.003 169.344 133.558C169.344 137.125 166.609 140 163.235 140H94.5572C91.183 140 88.4481 137.125 88.4481 133.558C88.4481 129.991 91.1725 127.116 94.5572 127.116ZM186.131 127.116H196.82C200.183 127.116 202.918 130.003 202.918 133.558C202.918 137.125 200.194 140 196.82 140H186.131C182.757 140 180.022 137.125 180.022 133.558C180.022 129.991 182.757 127.116 186.131 127.116Z" fill="var(--fill-normal)"/>
<g clip-path="url(#clip0_8025_92748)">
<path d="M96.2745 62.2012L111.118 77.0517C113.851 79.7852 113.851 84.2162 111.118 86.9497L96.271 101.8L96.25 101.776C94.9424 100.47 94.2076 98.6987 94.2076 96.8512C94.2076 95.0036 94.9424 93.2319 96.25 91.9267L102.669 85.5007L84 85.5427V78.5007H102.669L96.25 72.0782C94.9422 70.7723 94.2073 69.0001 94.2073 67.1519C94.2073 65.3038 94.9422 63.5315 96.25 62.2257L96.2745 62.2012ZM127.726 62.2012L127.75 62.2257C129.058 63.5309 129.792 65.3026 129.792 67.1502C129.792 68.9977 129.058 70.7694 127.75 72.0747L121.331 78.5007L140 78.4587V85.5007H121.331L127.754 91.9232C129.061 93.229 129.796 95.0013 129.796 96.8494C129.796 98.6976 129.061 100.47 127.754 101.776L127.729 101.8L115.5 89.5712L118.118 86.9497C120.851 84.2162 120.851 79.7852 118.118 77.0517L115.5 74.4302L127.726 62.2012Z" fill="#FF444F"/>
<path d="M115.5 96V110H108.5V96H115.5ZM115.5 54V68H108.5V54H115.5Z" fill="#85ACB0"/>
</g>
<path d="M242.25 81.9587V89.0007H223.581L230 95.4232C231.308 96.729 232.043 98.5013 232.043 100.349C232.043 102.198 231.308 103.97 230 105.276L229.979 105.3L216 91.3212L223.868 83.4532C224.292 83.0187 224.657 82.5303 224.953 82.0007L242.25 81.9587ZM202.021 55.2012L216.868 70.0517C219.601 72.7852 219.601 77.2162 216.868 79.9497L202.021 94.8002L202 94.7757C200.692 93.4704 199.958 91.6987 199.958 89.8512C199.958 88.0036 200.692 86.2319 202 84.9267L208.419 78.5007L189.75 78.5427V71.5007H208.419L202 65.0782C200.692 63.7723 199.957 62.0001 199.957 60.1519C199.957 58.3038 200.692 56.5315 202 55.2257L202.021 55.2012ZM229.976 65.7012C231.311 67.0313 232.048 68.8053 232.048 70.6554C232.048 72.3 231.465 73.8844 230.415 75.1331L230 75.5852L225.8 79.7852C226.188 77.705 225.613 75.5721 224.257 73.9739L223.868 73.5517L223 72.6802L229.976 65.7012Z" fill="#FF444F"/>
<path d="M221.25 99.5V110H214.25V99.5H221.25ZM221.25 54V64.5H214.25V54H221.25Z" fill="#85ACB0"/>
<defs>
<clipPath id="clip0_8025_92748">
<rect width="56" height="56" fill="var(--fill-normal)" transform="translate(84 54)"/>
</clipPath>
</defs>
</svg>

<svg width="328" height="164" fill="none" xmlns="http://www.w3.org/2000/svg"><rect width="328" height="164" rx="6" fill="var(--general-section-1)"/><path d="M186.131 101.337h34.339c3.374 0 6.109 2.887 6.109 6.442 0 3.567-2.735 6.442-6.109 6.442H64.032c-3.363 0-6.098-2.875-6.098-6.442 0-3.555 2.724-6.442 6.109-6.442h67.148c3.374 0 6.109-2.887 6.109-6.442 0-3.554-2.724-6.441-6.109-6.441H79.29v-.06c-3.05-.406-5.345-3.15-5.345-6.394 0-3.245 2.295-5.989 5.345-6.394v-.048h21.376c3.364 0 6.099-2.887 6.099-6.442 0-3.566-2.725-6.453-6.109-6.453h-28.23c-3.374 0-6.11-2.887-6.11-6.442 0-3.567 2.725-6.442 6.11-6.442h144.995c3.374 0 6.109 2.875 6.109 6.442 0 3.555-2.735 6.442-6.109 6.442H160.94c-3.363 0-6.098 2.887-6.098 6.442 0 3.554 2.735 6.441 6.109 6.441h33.574c3.374 0 6.109 2.9 6.109 6.454 0 3.555-2.735 6.442-6.109 6.442h-18.317c-3.364 0-6.099 2.887-6.099 6.442 0 3.566 2.725 6.453 6.099 6.453h9.923zM54.099 49.767c3.384 0 6.12 2.887 6.12 6.442 0 3.579-2.736 6.454-6.11 6.454S48 59.776 48 56.22c0-3.567 2.735-6.442 6.11-6.442l-.011-.012zM197.574 24h42.743c3.364 0 6.099 2.875 6.099 6.442s-2.725 6.442-6.099 6.442h-42.743c-3.364 0-6.099-2.887-6.099-6.442 0-3.567 2.725-6.442 6.099-6.442zm-25.945 0c3.374 0 6.109 2.875 6.109 6.442s-2.735 6.442-6.109 6.442c-3.375 0-6.099-2.887-6.099-6.442 0-3.567 2.724-6.442 6.099-6.442zm74.022 25.767h10.688c3.374 0 6.109 2.887 6.109 6.442 0 3.579-2.735 6.454-6.109 6.454h-10.688c-3.364 0-6.099-2.887-6.099-6.442 0-3.567 2.724-6.442 6.099-6.442v-.012zM218.94 75.558h22.896c3.374 0 6.109 2.887 6.109 6.442s-2.724 6.442-6.109 6.442h-22.885c-3.374 0-6.109-2.887-6.109-6.442s2.724-6.442 6.109-6.442h-.011zm21.377 25.779h33.574c3.374 0 6.109 2.887 6.109 6.442 0 3.567-2.735 6.442-6.109 6.442h-33.574c-3.374 0-6.109-2.875-6.109-6.442 0-3.555 2.735-6.442 6.109-6.442zm-145.76 25.779h68.678c3.374 0 6.109 2.887 6.109 6.442 0 3.567-2.735 6.442-6.109 6.442H94.557c-3.374 0-6.109-2.875-6.109-6.442s2.725-6.442 6.11-6.442zm91.574 0h10.689c3.363 0 6.098 2.887 6.098 6.442 0 3.567-2.724 6.442-6.098 6.442h-10.689c-3.374 0-6.109-2.875-6.109-6.442s2.735-6.442 6.109-6.442z" fill="var(--fill-normal)"/><g clip-path="url(#prefix__clip0_8025_92748)"><path d="M96.275 62.201l14.843 14.85a7 7 0 010 9.899L96.271 101.8l-.021-.024a6.96 6.96 0 010-9.85l6.419-6.425L84 85.543V78.5h18.669l-6.419-6.423a6.962 6.962 0 010-9.852l.025-.025zm31.451 0l.024.025a6.956 6.956 0 010 9.849l-6.419 6.426L140 78.459V85.5h-18.669l6.423 6.422a6.964 6.964 0 010 9.853l-.025.024L115.5 89.571l2.618-2.621a7 7 0 000-9.898L115.5 74.43l12.226-12.229z" fill="#FF444F"/><path d="M115.5 96v14h-7V96h7zm0-42v14h-7V54h7z" fill="#85ACB0"/></g><path d="M242.25 81.959V89h-18.669L230 95.423a6.96 6.96 0 010 9.853l-.021.024L216 91.321l7.868-7.868a6.9 6.9 0 001.085-1.452l17.297-.042zM202.021 55.2l14.847 14.85a7 7 0 010 9.899L202.021 94.8l-.021-.024a6.956 6.956 0 010-9.85l6.419-6.425-18.669.042V71.5h18.669L202 65.078a6.961 6.961 0 010-9.852l.021-.025zm27.955 10.5a6.98 6.98 0 012.072 4.954 6.959 6.959 0 01-1.633 4.478l-.415.452-4.2 4.2a7 7 0 00-1.543-5.811l-.389-.422-.868-.872 6.976-6.979z" fill="#FF444F"/><path d="M221.25 99.5V110h-7V99.5h7zm0-45.5v10.5h-7V54h7z" fill="#85ACB0"/><defs><clipPath id="prefix__clip0_8025_92748"><path fill="var(--fill-normal)" transform="translate(84 54)" d="M0 0h56v56H0z"/></clipPath></defs></svg>
